src/categories-icons-sprite/categories/svg-cat-women-outwear.svg

<svg width="34" height="34" viewBox="0 0 34 34" fill="none" xmlns="http://www.w3.org/2000/svg">
<path class="p-5BC980" d="M3.9844 13.9455L14.8084 10.3601L13.9768 4.39697L1.26026 9.45941C0.499338 9.76233 0 10.4986 0 11.3176V15.9377L1.86769 17.9299L3.9844 15.9377V13.9455Z" fill="#65B3E7"/>
<path class="p-00A38B" d="M34.0001 11.3177C34.0001 10.4986 33.5006 9.76228 32.7395 9.45943L21.0534 4.80933L20.9844 10.9571L30.0157 13.9454V15.9376L31.9456 17.9298L34.0001 15.9376V11.3177Z" fill="#4D98CB"/>
<path class="p-5BC980" d="M28.1161 33.9999H5.88281L6.73961 27.8905L10.0267 23.9061L7.87501 19.9217L9.68822 7.29126H24.3106L26.1239 19.9217L23.9721 23.9061L27.2593 27.8905L28.1161 33.9999Z" fill="#65B3E7"/>
<path class="p-00A38B" d="M28.1166 33.9999H17V7.29126H24.3112L26.1244 19.9217L23.9727 23.9061L27.2598 27.8905L28.1166 33.9999Z" fill="#4D98CB"/>
<path class="p-5BC980" d="M30.0156 15.9375H34V19.9219H30.0156V15.9375Z" fill="#65B3E7"/>
<path class="p-81EAAC" d="M0 15.0188H3.9844V19.0032H0V15.0188Z" fill="#B9DFFC"/>
<path class="p-81EAAC" d="M14.0118 19.9219H7.88265L6.74414 27.8907H14.0118V19.9219Z" fill="#B9DFFC"/>
<path class="p-5BC980" d="M19.9883 27.8907H27.2559L26.1174 19.9219H19.9883V27.8907Z" fill="#65B3E7"/>
<path class="p-FFD396" d="M8.90846 3.69473C8.2343 4.36889 8.12974 5.42518 8.65862 6.21843L17 18.7293L16.3572 7.50472L12.6032 0L8.90846 3.69473Z" fill="#A1D1FD"/>
<path class="p-FFB64C" d="M21.3968 0L17.5629 9.83726L17 18.7293L25.3414 6.21843C25.8703 5.42518 25.7657 4.36889 25.0916 3.69473L21.3968 0Z" fill="#5FBEFF"/>
<path class="p-5BC980" d="M21.4033 0L17.0005 18.7267L12.5977 0H21.4033Z" fill="#65B3E7"/>
<path class="p-00A38B" d="M21.4028 0L17 18.7267V0H21.4028Z" fill="#4D98CB"/>
</svg>

<svg width="34" height="34" fill="none" xmlns="http://www.w3.org/2000/svg"><path class="p-5BC980" d="M3.984 13.945l10.824-3.585-.831-5.963L1.26 9.459A2 2 0 000 11.318v4.62l1.868 1.992 2.116-1.992v-1.993z" fill="#65B3E7"/><path class="p-00A38B" d="M34 11.318a2 2 0 00-1.26-1.859L21.053 4.81l-.069 6.148 9.032 2.988v1.993l1.93 1.992L34 15.938v-4.62z" fill="#4D98CB"/><path class="p-5BC980" d="M28.116 34H5.883l.857-6.11 3.287-3.984-2.152-3.984 1.813-12.63h14.623l1.813 12.63-2.152 3.984 3.287 3.985.857 6.109z" fill="#65B3E7"/><path class="p-00A38B" d="M28.117 34H17V7.29h7.311l1.813 12.63-2.151 3.985 3.287 3.985.857 6.109z" fill="#4D98CB"/><path class="p-5BC980" d="M30.016 15.938H34v3.984h-3.984v-3.985z" fill="#65B3E7"/><path class="p-81EAAC" d="M0 15.019h3.984v3.984H0V15.02zM14.012 19.922h-6.13L6.745 27.89h7.268v-7.97z" fill="#B9DFFC"/><path class="p-5BC980" d="M19.988 27.89h7.268l-1.139-7.968h-6.129v7.969z" fill="#65B3E7"/><path class="p-FFD396" d="M8.908 3.695a2 2 0 00-.25 2.523L17 18.73l-.643-11.224L12.603 0 8.908 3.695z" fill="#A1D1FD"/><path class="p-FFB64C" d="M21.397 0l-3.834 9.837L17 18.73l8.341-12.51a2 2 0 00-.25-2.524L21.398 0z" fill="#5FBEFF"/><path class="p-5BC980" d="M21.403 0l-4.402 18.727L12.598 0h8.805z" fill="#65B3E7"/><path class="p-00A38B" d="M21.403 0L17 18.727V0h4.403z" fill="#4D98CB"/></svg>
